!!!COM: Music21
!!!OTL: Rumba para Susi
!!!OMV: pezas_rumbas_rumba-para-susi_rumba-para-susi-partitura.musicxml
**kern
*part1
*staff1
*I"Bagpipes
*I'Bag
*clefG^2
*k[]
*M2/4
=1
!LO:TX:a:t=Andante
*MM100
!LO:TX:a:t=[quarter]=100
4.r
16ccLL
16eeJJ
=||
4.gg
16eeLL
16ccJJ
=
8aaL
16ffL
16ddJJ
24eeLL
24ff
24eeJJ
16ddLL
16ccJJ
=
8gg
[4.ee
=
4.ee]
16ccLL
16eeJJ
=
4.gg
16cccLL
16bbJJ
=
8bb-XL
16aaL
16aa-XJJ
8ggL
16ffL
16eeJJ
=
[2dd
!!linebreak:original
=
4.dd]
32ddLLL
32cc
32dd
32eeJJJ
!!linebreak:original
=
8ffL
16aaL
16ffJJ
16cccLL
16aa
16ff
16eeJJ
=
8ddL
16ccL
16ddJJ
8bL
16ggL
16ffJJ
=
8ff
[4.ee
=
4.ee]
24eeLL
24ff
24ggJJ
=
4.aa
16ddLL
16ccJJ
=
16bLL
16dd
16ff
16aaJJ
8gg
24bLL
24cc
24ddJJ
=
[2cc
=
4.cc]
16ccLL
16eeJJ
=||
4.gg
16eeLL
16ccJJ
!!linebreak:original
=
8aaL
16ffL
16ddJJ
24eeLL
24ff
24eeJJ
16ddLL
16ccJJ
=
8gg
[4.ee
=
4.ee]
16ccLL
16eeJJ
=
4.gg
16cccLL
16bbJJ
=
8bb-XL
16aaL
16aa-XJJ
8ggL
16ffL
16eeJJ
=
[2dd
=
4.dd]
32ddLLL
32cc
32dd
32eeJJJ
!!linebreak:original
=
8ffL
16aaL
16ffJJ
16cccLL
16aa
16ff
16eeJJ
=
8ddL
16ccL
16ddJJ
8bL
16ggL
16ffJJ
=
8ff
[4.ee
=
4.ee]
24eeLL
24ff
24ggJJ
=
4.aa
16ddLL
16ccJJ
=
16bLL
16dd
16ff
16aaJJ
8gg
24bLL
24cc
24ddJJ
=
[2cc
=
2cc]
!!linebreak:original
=||
8.ffL
16ccJk
8.aaL
16ffJk
=
4ccc
16bbLL
16aa
16gg
16ffJJ
=
8ff
[4.ee
=
2ee]
=
8.ddL
16bJk
8.ffL
16ddJk
=
16aaLL
16ccc
16bb
16bb-XJJ
16aaLL
16aa-X
16gg
16ff#XJJ
=
[2gg
=
2gg]
=
16ffLL
16ee
16ff
16ccJJ
16aaLL
16gg
16aa
16ffJJ
!!pagebreak:original
=
12cccL
12ddd
12cccJ
16bbLL
16aa
16gg
16ffJJ
=
8ff
[4.ee
=
2ee]
=
16aaLL
16ccc
16bb
16cccJJ
16dddLL
16ccc
16bb
16aaJJ
=
16ggLL
16ccc
16eee
16dddJJ
16cccLL
16bb
16aa
16aa-XJJ
=
16ggLL
16ccc
16bb
16aaJJ
16ggLL
16ff
16ee
16ddJJ
=
2cc
!!linebreak:original
=||
8.ffL
16ccJk
8.aaL
16ffJk
=
4ccc
16bbLL
16aa
16gg
16ffJJ
=
8ff
[4.ee
=
2ee]
=
8.ddL
16bJk
8.ffL
16ddJk
=
16aaLL
16ccc
16bb
16bb-XJJ
16aaLL
16aa-X
16gg
16ff#XJJ
=
[2gg
=
2gg]
=
16ffLL
16ee
16ff
16ccJJ
16aaLL
16gg
16aa
16ffJJ
!!linebreak:original
=
12cccL
12ddd
12cccJ
16bbLL
16aa
16gg
16ffJJ
=
8ff
[4.ee
=
2ee]
=
16aaLL
16ccc
16bb
16cccJJ
16dddLL
16ccc
16bb
16aaJJ
=
16ggLL
16ccc
16eee
16dddJJ
16cccLL
16bb
16aa
16aa-XJJ
=
16ggLL
16ccc
16bb
16aaJJ
16ggLL
16ff
16ee
16ddJJ
=
2cc
=||
8.eeL
16ccJk
8.ffL
16ddJk
!!linebreak:original
=
8.eeL
16ccJk
8ffL
8aaJ
=
8ggL
16ccL
16bJJ
16ccLL
16dd
16ee
16ffJJ
=
8.ggL
16gg-XJk
12ffL
12ee
12ddJ
=
8.eeL
16ccJk
8cccL
16bbL
16cccJJ
=
16dddLL
16ccc
16bb
16cccJJ
16dddLL
16ccc
16bb
16cccJJ
=
[2aa
.
.
.
=
2aa]
.
.
.
.
.
.
!!linebreak:original
=
8.aaL
16bbJk
16dddLL
16ccc
16bb
16cccJJ
=
8.dddL
16cccJk
16aa-XLL
16ccc
16ff
16cccJJ
=
8.ddL
16eeJk
16ggLL
16aa
16ccc
16dddJJ
=
8.eeeL
16dddJk
8cccL
.
8ggJ
.
=
8.ffL
16aaJk
8gg
24ff#XLL
24gg
24aaJJ
=
8ggL
.
16ggL
16ffJJ
16eeLL
16dd
16cc
16bJJ
=
[2cc
!!pagebreak:original
=
4cc]
16ccLL
16b
16cc
16ddJJ
=||
8.eeL
16ccJk
8.ffL
16ddJk
!!linebreak:original
=
8.eeL
16ccJk
8ffL
8aaJ
=
8ggL
16ccL
16bJJ
16ccLL
16dd
16ee
16ffJJ
=
8.ggL
16gg-XJk
12ffL
12ee
12ddJ
=
8.eeL
16ccJk
8cccL
16bbL
16cccJJ
=
16dddLL
16ccc
16bb
16cccJJ
16dddLL
16ccc
16bb
16cccJJ
=
[2aa
.
.
.
=
2aa]
.
.
.
.
.
.
!!linebreak:original
=
8.aaL
16bbJk
16dddLL
16ccc
16bb
16cccJJ
=
8.dddL
16cccJk
16aa-XLL
16ccc
16ff
16cccJJ
=
8.ddL
16eeJk
16ggLL
16aa
16ccc
16dddJJ
=
8.eeeL
16dddJk
8cccL
.
8ggJ
.
=
8.ffL
16aaJk
8gg
24ff#XLL
24gg
24aaJJ
=
8ggL
.
16ggL
16ffJJ
16eeLL
16dd
16cc
16bJJ
=
[2cc
!!linebreak:original
=
4.cc]
16ccLL
16eeJJ
==
*-
!!!system-decoration: s1,s2
